X: 625
T: Grey Owl
B: jims roots
M:4/4
L:1/8
Q: 1/4=100
K:D
V:1 
%N:Arr.Cory Walker
DB,|:"D"A,B,DE FEDB, | A,B,DE F2 ED | "Em"EFGA BAGF | EFGA B2 BA |
"G"Bcde f2 fg | "Bm"fedc B2 BB |[M:2/4]BBdc|[M:4/4]"G"BGBd "A"cAce |
[1 "D"d3 d dADB,:| [2 "D"d3 d defg |:"D"abaf dcde | "Bm"fgfd B2 BA |
"G"FB2A Bcde | "A"fgfd e2 fg | "D"abaf dcde | "Bm"fgfd B2 BA |
"G"FB2A Bcde | [1"A"fdec "D"d2 fg:|[2 "A"fdec "D"d4|]
% abcbook-tune_id 6298c25d7984f8c48576b3d3


% abcbook-boost 0
% abcbook-tablature 
% abcbook-transpose 
% abcbook-lastupdated 1654178398504
% abcbook-soundfonts 
% abcbook-repeats 1


